packages/ui-icons/svg/Line/hour-glass.svg

<svg viewBox="0 0 1920 1920" version="1.1" xmlns="http://www.w3.org/2000/svg">
    <path d="M1072.58824,960 C1072.58824,1127.26588 1168.81412,1205.30824 1261.87765,1280.64 C1378.43294,1375.17176 1509.67059,1481.56235 1523.22353,1807.05882 L396.070588,1807.05882 C409.623529,1481.56235 540.861176,1375.17176 657.416471,1280.64 C750.48,1205.30824 846.705882,1127.26588 846.705882,960 C846.705882,792.734118 750.48,714.691765 657.416471,639.36 C540.861176,544.828235 409.623529,438.437647 396.070588,112.941176 L1523.22353,112.941176 C1509.67059,438.437647 1378.43294,544.828235 1261.87765,639.36 C1168.81412,714.691765 1072.58824,792.734118 1072.58824,960 M1333.03059,727.002353 C1468.56,617.110588 1637.29412,480.338824 1637.29412,56.4705882 L1637.29412,0 L282,0 L282,56.4705882 C282,480.338824 450.734118,617.110588 586.263529,727.002353 C675.035294,799.058824 733.764706,846.607059 733.764706,960 C733.764706,1073.39294 675.035294,1120.94118 586.263529,1192.99765 C450.734118,1302.88941 282,1439.66118 282,1863.52941 L282,1920 L1637.29412,1920 L1637.29412,1863.52941 C1637.29412,1439.66118 1468.56,1302.88941 1333.03059,1192.99765 C1244.25882,1120.94118 1185.52941,1073.39294 1185.52941,960 C1185.52941,846.607059 1244.25882,799.058824 1333.03059,727.002353 M933.84,1274.66541 L764.202353,1412.34071 C689.887059,1472.53835 625.849412,1524.37835 591.515294,1637.65835 L1327.77882,1637.65835 C1293.44471,1524.37835 1229.40706,1472.53835 1155.09176,1412.34071 L985.454118,1274.66541 C970.432941,1262.46776 948.861176,1262.46776 933.84,1274.66541" stroke="none" stroke-width="1" fill-rule="evenodd"/>
</svg>

<svg viewBox="0 0 1920 1920" version="1.1" xmlns="http://www.w3.org/2000/svg">
    <path d="M1072.588 960c0 167.266 96.226 245.308 189.29 320.64 116.555 94.532 247.793 200.922 261.346 526.419H396.07c13.553-325.497 144.79-431.887 261.345-526.419 93.064-75.332 189.29-153.374 189.29-320.64s-96.226-245.308-189.29-320.64c-116.555-94.532-247.792-200.922-261.345-526.419h1127.153c-13.553 325.497-144.791 431.887-261.346 526.419-93.064 75.332-189.29 153.374-189.29 320.64m260.443-232.998c135.529-109.891 304.263-246.663 304.263-670.531V0H282v56.47c0 423.869 168.734 560.64 304.264 670.532 88.771 72.057 147.5 119.605 147.5 232.998 0 113.393-58.729 160.941-147.5 232.998C450.734 1302.889 282 1439.66 282 1863.529V1920h1355.294v-56.47c0-423.869-168.734-560.64-304.263-670.532-88.772-72.057-147.502-119.605-147.502-232.998 0-113.393 58.73-160.941 147.502-232.998M933.84 1274.665l-169.638 137.676c-74.315 60.197-138.353 112.037-172.687 225.317h736.264c-34.334-113.28-98.372-165.12-172.687-225.317l-169.638-137.676c-15.021-12.197-36.593-12.197-51.614 0" stroke="none" stroke-width="1" fill-rule="evenodd"/>
</svg>
